X:1
T:Title
%%score { ( 1 3 4 ) | ( 2 5 ) }
L:1/8
M:4/4
K:Eb
V:1 treble nm="Grand Piano"
V:3 treble 
V:4 treble 
V:2 bass 
V:5 bass 
V:1
 z4 z2[Q:1/4=92] [GB][FA] | GFEF G2 G[FA] | [GB][Ac][GB][EG] [DF]2 [DF][EG] | %3
 [FA][=EG][FA][GB] [Ad]2 [DAc]2 | [EAc]4 [EGB]2 [B,EG][B,GB] | [Ge][Ge][Bd][Ac] [GB]2 [_G=A][=GB] | %6
 ccAc [EGB]2 [B,EG][EGB] | [EAc][Ece][EBd][EAc] [EGB]2 [B,EG]2 |[M:7/8] [A,DF]- [A,DF]3 [G,E]3 | %9
[M:1/4] [B,EG][B,FA] |[M:4/4] [GB][GB][_G=A][=GB] [_Ac] [GB]2 [EG] | [GB]2 [FA]2 [FA]B,DF | A6 z2 | %13
 G6 z2 | [GB][GB][_G=A][=GB] [_Ac] [GB]2 [EG] | [GB]2 [FA]2 [DA]B,DF | A6 z2 |[M:3/4] E6 |] %18
V:2
 z4 z2 [E,B,][E,B,] | [E,B,E][E,A,B,][E,G,B,][E,A,B,] [E,B,E]2 [E,B,E][E,B,] | %2
 [E,E][E,E][E,E][E,B,] [B,,B,]2 [B,,B,][B,,B,] | [B,,B,][B,,B,][B,,B,][B,,B,] [B,,B,]2 B,,2 | %4
 E,4 E,2 E,E, | [E,B,][E,B,][E,B,][E,B,] [E,E]2 [E,E][E,E] | %6
 [A,EA][A,EA][A,CE][A,EA][K:bass] E,2 E,E, | A,A,A,A, E,2 E,2 |[M:7/8] B,,- B,,3 E,3 | %9
[M:1/4] E,E, |[M:4/4] [E,E][E,E][E,E][E,E] [E,E] [E,E]2 [E,B,] | [B,,B,]2 [B,,B,]2 .[B,,B,]2 z2 | %12
 z [B,,F,][B,,D,][B,,F,] .[B,,B,]2 z2 | z [E,B,][E,G,][E,B,] E,2 [E,B,E][E,B,] | %14
 [E,E][E,E][E,E][E,E] [E,E] [E,E]2 [E,B,] | [B,,B,]2 [B,,B,]2 .[B,,F,]2 z2 | %16
 z [B,,F,][B,,D,][B,,F,] B,C z A, |[M:3/4] [E,G,]2 [E,A,]2 [E,G,]2 |] %18
V:3
 x8 | x8 | x8 | x8 | x8 | x8 | x8 | x8 |[M:7/8] x7 |[M:1/4] x2 |[M:4/4] x8 | x8 | z DDD DcBA | %13
 z EEE E2 G[FA] | x8 | x8 | z DDD z A[B,G]F |[M:3/4] z2 C2 B,2 |] %18
V:4
 x8 | x8 | x8 | x8 | x8 | x8 | x8 | x8 |[M:7/8] x7 |[M:1/4] x2 |[M:4/4] x8 | x8 | x8 | x8 | x8 | %15
 x8 | z4 D2 D2 |[M:3/4] x6 |] %18
V:5
 x8 | x8 | x8 | x8 | x8 | x8 | x4[K:bass] x4 | x8 |[M:7/8] x7 |[M:1/4] x2 |[M:4/4] x8 | x8 | x8 | %13
 x8 | x8 | x8 | z4 B,,2 B,,2 |[M:3/4] x6 |] %18

